X: 157
T:Jump at the Sun
% Nottingham Music Database
S:John Kirkpatrick, via EF
M:6/8
K:Gm
P:A
B/2A/2|"Gm"GBd ^c2d|"Gm"GBd ^c2d|"Gm"gdd "Gm/bb"gdd|"Cm"dcB "D7"A2B|
"Gm"GBd ^c2d|"Gm"GBd ^c2d|"Gm"gdd "Cm"edc|[1"D7"BcA "Gm"G2:|[2"D7" BcA "Gm" G3
|:"Gm"gdd bag|"D7"add c'ba|"Gm"bag bag|"D7"a^fd e2d|
  "Gm"gdd bag|"D7"add c'ba|"Gm"gdd "Cm"edc|"D7"BcA "Gm"G3:|<end>
<start>
